Newaita-dark/apps/48/com.github.artemanufrij.webpin.svg

<svg height="48pt" viewBox="0 0 48 48" width="48pt" xmlns="http://www.w3.org/2000/svg" xmlns:xlink="http://www.w3.org/1999/xlink"><linearGradient id="a"><stop offset="0" stop-opacity=".313725"/><stop offset=".222222" stop-opacity=".27451"/><stop offset="1" stop-opacity="0"/></linearGradient><radialGradient id="b" cx="450.90894" cy="189.57936" gradientTransform="matrix(.00000026 -.117199 -.210958 -.00000015 75.219128 96.385285)" gradientUnits="userSpaceOnUse" r="21.166656" xlink:href="#a"/><radialGradient id="c" cx="450.90894" cy="189.57936" gradientTransform="matrix(-.00000026 .117199 .210958 .00000015 -29.574142 -10.298934)" gradientUnits="userSpaceOnUse" r="21.166656" xlink:href="#a"/><radialGradient id="d" cx="450.90894" cy="189.57936" gradientTransform="matrix(-.00000026 -.117199 .210958 -.00000015 -29.574142 96.385285)" gradientUnits="userSpaceOnUse" r="21.166656" xlink:href="#a"/><radialGradient id="e" cx="450.90894" cy="189.57936" gradientTransform="matrix(.00000026 .117199 -.210958 .00000015 75.219125 -10.298935)" gradientUnits="userSpaceOnUse" r="21.166656" xlink:href="#a"/><linearGradient id="f" gradientTransform="matrix(.0200401 0 0 .093759 15.22509 21.150463)" gradientUnits="userSpaceOnUse" x1="255.32306" x2="255.32304" y1="233.5" y2="254.66666"><stop offset="0" stop-opacity=".27451"/><stop offset="1" stop-opacity="0"/></linearGradient><linearGradient id="g" gradientUnits="userSpaceOnUse" x1="23.814786" x2="23.814786" y1="43.04318381253" y2="13.27470037494"><stop offset="0" stop-color="#42a5f5"/><stop offset="1" stop-color="#64b5f6"/></linearGradient><linearGradient id="h" gradientUnits="userSpaceOnUse" x1="23.814786" x2="23.814786" y1="40.06633568747" y2="4.34415668747"><stop offset="0" stop-color="#bdbdbd"/><stop offset="1" stop-color="#e0e0e0"/></linearGradient><path d="m35.722656 43.042969h3.96875v-1.984375h-3.96875zm0 0" fill="url(#b)"/><path d="m9.921875 43.042969h-3.96875v1.984375h3.96875zm0 0" fill="url(#c)"/><path d="m9.921875 43.042969h-3.96875v-1.984375h3.96875zm0 0" fill="url(#d)"/><path d="m35.722656 43.042969h3.96875v1.984375h-3.96875zm0 0" fill="url(#e)"/><path d="m9.921875 42.546875h25.800781v2.480469h-25.800781zm0 0" fill="url(#f)"/><path d="m22.800781 13.257812c-7.695312 0-13.890625 6.542969-13.890625 14.671876v.425781c0 .265625.007813.53125.019532.792969-3.34375.214843-5.972657 3.066406-5.972657 6.578124v.707032c0 3.652344 2.84375 6.59375 6.378907 6.59375h5.546874v.011718h20.839844c5.496094 0 9.921875-4.425781 9.921875-9.921874 0-5.417969-4.296875-9.792969-9.683593-9.917969-1.855469-5.792969-7.03125-9.941407-13.160157-9.941407zm0 0" fill="url(#g)"/><path d="m9.886719 29.152344c-3.871094 0-6.984375 3.097656-6.984375 6.945312 0 .101563.003906.207032.007812.308594.160156-3.703125 3.210938-6.636719 6.976563-6.636719 3.761719 0 6.8125 2.933594 6.976562 6.636719.003907-.101562.003907-.207031.003907-.308594 0-3.847656-3.113282-6.945312-6.980469-6.945312zm0 0" fill="#fafafa" fill-opacity=".392157"/><path d="m22.800781 13.257812c-7.695312 0-13.890625 6.542969-13.890625 14.671876v.425781.160156c.089844-8.046875 6.25-14.496094 13.890625-14.496094 6.128907 0 11.304688 4.144531 13.160157 9.9375 5.257812.125 9.480468 4.300781 9.675781 9.539063.003906-.125.007812-.25.007812-.378906 0-5.417969-4.296875-9.792969-9.683593-9.917969-1.855469-5.792969-7.03125-9.941407-13.160157-9.941407zm-13.890625 15.890626c-3.332031.226562-5.953125 3.074218-5.953125 6.578124v.707032.027344c.015625-3.5 2.636719-6.335938 5.972657-6.550782-.011719-.253906-.019532-.503906-.019532-.761718zm0 0" fill="#fff" fill-opacity=".392157"/><path d="m8.910156 27.757812v.171876.425781.035156c.007813 0 .015625 0 .019532-.003906-.007813-.207031-.015626-.417969-.019532-.628907zm36.726563 4.980469c-.195313 5.320313-4.542969 9.542969-9.914063 9.542969h-20.839844v-.015625h-5.546874c-3.527344 0-6.363282-2.925781-6.378907-6.566406v.027343.707032c0 3.652344 2.84375 6.59375 6.378907 6.59375h5.546874v.011718h20.839844c5.496094 0 9.921875-4.425781 9.921875-9.921874 0-.128907 0-.253907-.007812-.378907zm0 0" fill-opacity=".235294"/><path d="m35.96875 23.199219c-5.359375 0-9.671875 4.425781-9.671875 9.921875 0 .125 0 .246094.003906.371094.191407-5.324219 4.429688-9.550782 9.667969-9.550782s9.480469 4.226563 9.667969 9.550782c.007812-.125.007812-.246094.007812-.371094 0-5.496094-4.316406-9.921875-9.675781-9.921875zm0 0" fill="#fafafa" fill-opacity=".392157"/><path d="m22.800781 13.117188c-7.773437 0-14.03125 6.613281-14.03125 14.8125v.425781c0 .222656.007813.445312.015625.667969-3.351562.289062-5.96875 3.171874-5.96875 6.703124v.707032c0 3.726562 2.90625 6.734375 6.519532 6.734375h5.488281c.019531.007812.039062.011719.058593.011719h20.839844c5.570313 0 10.0625-4.488282 10.0625-10.0625 0-5.457032-4.308594-9.875-9.722656-10.054688-1.898438-5.796875-7.101562-9.945312-13.261719-9.945312zm0 .28125c6.066407 0 11.1875 4.105468 13.027344 9.84375.015625.054687.070313.09375.128906.097656 5.3125.121094 9.546875 4.433594 9.546875 9.777344 0 5.421874-4.359375 9.78125-9.78125 9.78125h-20.777344c-.019531-.007813-.039062-.011719-.0625-.011719h-5.546874c-3.457032 0-6.238282-2.875-6.238282-6.453125v-.707032c0-3.441406 2.574219-6.226562 5.84375-6.4375.074219-.003906.132813-.070312.128906-.148437-.011718-.261719-.019531-.523437-.019531-.785156v-.425781c0-8.054688 6.136719-14.53125 13.75-14.53125zm0 0" fill="#212121"/><path d="m12.210938 4.105469c-1.253907-.023438-2.320313.902343-2.46875 2.148437-1.414063 10.476563 1.324218 21.109375 3.203124 29.332032.222657.972656 1.011719 1.710937 2 1.863281.984376.15625 1.964844-.304688 2.472657-1.164063l6.144531-10.351562 3.175781 11.613281c.261719.960937 1.085938 1.664063 2.074219 1.777344.992188.113281 1.949219-.390625 2.421875-1.269531 4.007813-7.457032 9.519531-17.410157 10.871094-27.429688.128906-.871094-.21875-1.738281-.910157-2.28125-.695312-.539062-1.625-.664062-2.433593-.328125-.8125.335937-1.378907 1.085937-1.484375 1.957031-.90625 6.683594-4.171875 13.933594-7.464844 20.335938l-3.0625-11.203125c-.261719-.945313-1.058594-1.644531-2.027344-1.773438-.96875-.132812-1.921875.328125-2.421875 1.171875l-5.945312 10.015625c-1.488281-6.925781-2.738281-14.53125-1.78125-21.613281.101562-.695312-.097657-1.398438-.550781-1.933594-.453126-.539062-1.113282-.851562-1.8125-.867187zm0 0" fill="url(#h)"/><path d="m12.210938 4.105469c-1.253907-.023438-2.320313.90625-2.46875 2.148437-.289063 2.144532-.40625 4.296875-.390626 6.429688.015626-1.886719.132813-3.78125.390626-5.671875.148437-1.242188 1.214843-2.171875 2.46875-2.148438 1.179687.023438 2.175781.894531 2.359374 2.0625 0-.007812.003907-.015625.003907-.019531.101562-.695312-.097657-1.398438-.550781-1.933594-.453126-.539062-1.113282-.851562-1.8125-.867187zm27.527343 3.726562c-1.25-.023437-2.3125.902344-2.460937 2.140625-.90625 6.683594-4.171875 13.933594-7.464844 20.335938l-3.0625-11.203125c-.261719-.945313-1.058594-1.644531-2.027344-1.773438-.96875-.132812-1.921875.328125-2.421875 1.171875l-5.945312 10.015625c-1.085938-5.046875-2.042969-10.453125-2.113281-15.753906-.003907.328125-.003907.65625 0 .988281 0-.078125 0-.15625 0-.230468.070312 5.300781 1.027343 10.707031 2.113281 15.753906l5.945312-10.015625c.5-.84375 1.453125-1.304688 2.421875-1.171875.96875.128906 1.765625.828125 2.027344 1.773437l3.0625 11.203125c3.292969-6.402344 6.558594-13.652344 7.464844-20.335937.148437-1.238281 1.210937-2.164063 2.460937-2.140625 1.183594.019531 2.183594.890625 2.367188 2.058594 0-.007813 0-.015626 0-.023438.105469-.695312-.097657-1.398438-.550781-1.933594-.453126-.535156-1.117188-.847656-1.816407-.859375zm0 0" fill="#fff" fill-opacity=".784314"/><path d="m10.128906 21.894531c-.050781.113281-.097656.230469-.140625.34375.734375 5.3125 1.964844 10.328125 2.957031 14.667969.222657.972656 1.011719 1.710938 2 1.867188.984376.152343 1.964844-.308594 2.472657-1.164063l6.144531-10.355469 3.175781 11.613282c.261719.960937 1.085938 1.667968 2.074219 1.777343.992188.113281 1.949219-.386719 2.421875-1.265625 2.417969-4.496094 5.378906-9.898437 7.644531-15.675781-.15625-.050781-.3125-.097656-.472656-.144531-2.195312 5.332031-4.917969 10.308594-7.171875 14.496094-.472656.878906-1.429687 1.382812-2.421875 1.269531-.988281-.113281-1.8125-.816407-2.074219-1.777344l-3.175781-11.613281-6.144531 10.351562c-.507813.859375-1.488281 1.320313-2.472657 1.164063-.988281-.152344-1.777343-.890625-2-1.863281-.929687-4.078126-2.074218-8.742188-2.816406-13.691407zm0 0" fill-opacity=".235294"/><path d="m130.237563-171.212515c-13.373723-.249976-24.747637 9.624081-26.330819 22.914479-15.081893 111.739329 14.123651 225.145166 34.163404 312.845124 2.374774 10.37401 10.790637 18.248258 21.331297 19.873103 10.498997 1.666507 20.956332-3.24969 26.372481-12.415481l65.535408-110.406124 33.871766 123.863172c2.7914 10.249021 11.582227 17.748305 22.122887 18.956523 10.582323 1.208218 20.789682-4.166269 25.830867-13.540374 42.745918-79.534071 101.531971-185.690601 115.947261-292.555395 1.374869-9.29078-2.333111-18.539897-9.707407-24.33101-7.415958-5.749451-17.331678-7.082657-25.955854-3.499666-8.665839 3.582991-14.706929 11.582227-15.831822 20.873007-9.665743 71.284859-44.495751 148.610808-79.617397 216.895954l-32.663547-119.48859c-2.7914-10.08237-11.290589-17.539991-21.622935-18.91486-10.332347-1.416531-20.498043 3.499666-25.830867 12.498806l-63.410611 106.823133c-15.873484-73.867946-29.205544-154.9852-18.998186-230.519653 1.08323-7.415959-1.041567-14.915243-5.874439-20.623031-4.832872-5.749451-11.873866-9.082466-19.331487-9.249117zm0 0" fill="none" stroke="#212121" stroke-linecap="round" stroke-linejoin="round" stroke-width="3" transform="matrix(.093759 0 0 .093759 0 20.158175)"/></svg>

<?xml version="1.0" encoding="UTF-8"?>
<svg xmlns="http://www.w3.org/2000/svg" xmlns:xlink="http://www.w3.org/1999/xlink" width="48pt" height="48pt" viewBox="0 0 48 48" version="1.1">
<defs>
<radialGradient id="radial0" gradientUnits="userSpaceOnUse" cx="450.90894" cy="189.57936" fx="450.90894" fy="189.57936" r="21.166656" gradientTransform="matrix(0.000000261256,-0.117199,-0.210958,-0.000000152308,75.219128,96.385285)">
<stop offset="0" style="stop-color:rgb(0%,0%,0%);stop-opacity:0.313725;"/>
<stop offset="0.222222" style="stop-color:rgb(0%,0%,0%);stop-opacity:0.27451;"/>
<stop offset="1" style="stop-color:rgb(0%,0%,0%);stop-opacity:0;"/>
</radialGradient>
<radialGradient id="radial1" gradientUnits="userSpaceOnUse" cx="450.90894" cy="189.57936" fx="450.90894" fy="189.57936" r="21.166656" gradientTransform="matrix(-0.000000261256,0.117199,0.210958,0.000000152308,-29.574142,-10.298934)">
<stop offset="0" style="stop-color:rgb(0%,0%,0%);stop-opacity:0.313725;"/>
<stop offset="0.222222" style="stop-color:rgb(0%,0%,0%);stop-opacity:0.27451;"/>
<stop offset="1" style="stop-color:rgb(0%,0%,0%);stop-opacity:0;"/>
</radialGradient>
<radialGradient id="radial2" gradientUnits="userSpaceOnUse" cx="450.90894" cy="189.57936" fx="450.90894" fy="189.57936" r="21.166656" gradientTransform="matrix(-0.000000261256,-0.117199,0.210958,-0.000000152308,-29.574142,96.385285)">
<stop offset="0" style="stop-color:rgb(0%,0%,0%);stop-opacity:0.313725;"/>
<stop offset="0.222222" style="stop-color:rgb(0%,0%,0%);stop-opacity:0.27451;"/>
<stop offset="1" style="stop-color:rgb(0%,0%,0%);stop-opacity:0;"/>
</radialGradient>
<radialGradient id="radial3" gradientUnits="userSpaceOnUse" cx="450.90894" cy="189.57936" fx="450.90894" fy="189.57936" r="21.166656" gradientTransform="matrix(0.000000261256,0.117199,-0.210958,0.000000152308,75.219125,-10.298935)">
<stop offset="0" style="stop-color:rgb(0%,0%,0%);stop-opacity:0.313725;"/>
<stop offset="0.222222" style="stop-color:rgb(0%,0%,0%);stop-opacity:0.27451;"/>
<stop offset="1" style="stop-color:rgb(0%,0%,0%);stop-opacity:0;"/>
</radialGradient>
<linearGradient id="linear0" gradientUnits="userSpaceOnUse" x1="255.32306" y1="233.5" x2="255.32304" y2="254.66666" gradientTransform="matrix(0.0200401,0,0,0.093759,15.22509,21.150463)">
<stop offset="0" style="stop-color:rgb(0%,0%,0%);stop-opacity:0.27451;"/>
<stop offset="1" style="stop-color:rgb(0%,0%,0%);stop-opacity:0;"/>
</linearGradient>
<linearGradient id="linear1" gradientUnits="userSpaceOnUse" x1="254" y1="191.16667" x2="254" y2="-126.33334" gradientTransform="matrix(0.093759,0,0,0.093759,0,25.119588)">
<stop offset="0" style="stop-color:rgb(25.882353%,64.705882%,96.078431%);stop-opacity:1;"/>
<stop offset="1" style="stop-color:rgb(39.215686%,70.980392%,96.470588%);stop-opacity:1;"/>
</linearGradient>
<linearGradient id="linear2" gradientUnits="userSpaceOnUse" x1="254" y1="212.33333" x2="254" y2="-168.66667" gradientTransform="matrix(0.093759,0,0,0.093759,0,20.158175)">
<stop offset="0" style="stop-color:rgb(74.117647%,74.117647%,74.117647%);stop-opacity:1;"/>
<stop offset="1" style="stop-color:rgb(87.843137%,87.843137%,87.843137%);stop-opacity:1;"/>
</linearGradient>
</defs>
<g id="surface1">
<path style=" stroke:none;fill-rule:nonzero;fill:url(#radial0);" d="M 35.722656 43.042969 L 39.691406 43.042969 L 39.691406 41.058594 L 35.722656 41.058594 Z M 35.722656 43.042969 "/>
<path style=" stroke:none;fill-rule:nonzero;fill:url(#radial1);" d="M 9.921875 43.042969 L 5.953125 43.042969 L 5.953125 45.027344 L 9.921875 45.027344 Z M 9.921875 43.042969 "/>
<path style=" stroke:none;fill-rule:nonzero;fill:url(#radial2);" d="M 9.921875 43.042969 L 5.953125 43.042969 L 5.953125 41.058594 L 9.921875 41.058594 Z M 9.921875 43.042969 "/>
<path style=" stroke:none;fill-rule:nonzero;fill:url(#radial3);" d="M 35.722656 43.042969 L 39.691406 43.042969 L 39.691406 45.027344 L 35.722656 45.027344 Z M 35.722656 43.042969 "/>
<path style=" stroke:none;fill-rule:nonzero;fill:url(#linear0);" d="M 9.921875 42.546875 L 35.722656 42.546875 L 35.722656 45.027344 L 9.921875 45.027344 Z M 9.921875 42.546875 "/>
<path style=" stroke:none;fill-rule:nonzero;fill:url(#linear1);" d="M 22.800781 13.257812 C 15.105469 13.257812 8.910156 19.800781 8.910156 27.929688 L 8.910156 28.355469 C 8.910156 28.621094 8.917969 28.886719 8.929688 29.148438 C 5.585938 29.363281 2.957031 32.214844 2.957031 35.726562 L 2.957031 36.433594 C 2.957031 40.085938 5.800781 43.027344 9.335938 43.027344 L 14.882812 43.027344 L 14.882812 43.039062 L 35.722656 43.039062 C 41.21875 43.039062 45.644531 38.613281 45.644531 33.117188 C 45.644531 27.699219 41.347656 23.324219 35.960938 23.199219 C 34.105469 17.40625 28.929688 13.257812 22.800781 13.257812 Z M 22.800781 13.257812 "/>
<path style=" stroke:none;fill-rule:nonzero;fill:rgb(98.039216%,98.039216%,98.039216%);fill-opacity:0.392157;" d="M 9.886719 29.152344 C 6.015625 29.152344 2.902344 32.25 2.902344 36.097656 C 2.902344 36.199219 2.90625 36.304688 2.910156 36.40625 C 3.070312 32.703125 6.121094 29.769531 9.886719 29.769531 C 13.648438 29.769531 16.699219 32.703125 16.863281 36.40625 C 16.867188 36.304688 16.867188 36.199219 16.867188 36.097656 C 16.867188 32.25 13.753906 29.152344 9.886719 29.152344 Z M 9.886719 29.152344 "/>
<path style=" stroke:none;fill-rule:nonzero;fill:rgb(100%,100%,100%);fill-opacity:0.392157;" d="M 22.800781 13.257812 C 15.105469 13.257812 8.910156 19.800781 8.910156 27.929688 L 8.910156 28.355469 C 8.910156 28.410156 8.910156 28.460938 8.910156 28.515625 C 9 20.46875 15.160156 14.019531 22.800781 14.019531 C 28.929688 14.019531 34.105469 18.164062 35.960938 23.957031 C 41.21875 24.082031 45.441406 28.257812 45.636719 33.496094 C 45.640625 33.371094 45.644531 33.246094 45.644531 33.117188 C 45.644531 27.699219 41.347656 23.324219 35.960938 23.199219 C 34.105469 17.40625 28.929688 13.257812 22.800781 13.257812 Z M 8.910156 29.148438 C 5.578125 29.375 2.957031 32.222656 2.957031 35.726562 L 2.957031 36.433594 C 2.957031 36.441406 2.957031 36.453125 2.957031 36.460938 C 2.972656 32.960938 5.59375 30.125 8.929688 29.910156 C 8.917969 29.65625 8.910156 29.40625 8.910156 29.148438 Z M 8.910156 29.148438 "/>
<path style=" stroke:none;fill-rule:nonzero;fill:rgb(0%,0%,0%);fill-opacity:0.235294;" d="M 8.910156 27.757812 C 8.910156 27.8125 8.910156 27.871094 8.910156 27.929688 L 8.910156 28.355469 C 8.910156 28.367188 8.910156 28.378906 8.910156 28.390625 C 8.917969 28.390625 8.925781 28.390625 8.929688 28.386719 C 8.921875 28.179688 8.914062 27.96875 8.910156 27.757812 Z M 45.636719 32.738281 C 45.441406 38.058594 41.09375 42.28125 35.722656 42.28125 L 14.882812 42.28125 L 14.882812 42.265625 L 9.335938 42.265625 C 5.808594 42.265625 2.972656 39.339844 2.957031 35.699219 C 2.957031 35.710938 2.957031 35.71875 2.957031 35.726562 L 2.957031 36.433594 C 2.957031 40.085938 5.800781 43.027344 9.335938 43.027344 L 14.882812 43.027344 L 14.882812 43.039062 L 35.722656 43.039062 C 41.21875 43.039062 45.644531 38.613281 45.644531 33.117188 C 45.644531 32.988281 45.644531 32.863281 45.636719 32.738281 Z M 45.636719 32.738281 "/>
<path style=" stroke:none;fill-rule:nonzero;fill:rgb(98.039216%,98.039216%,98.039216%);fill-opacity:0.392157;" d="M 35.96875 23.199219 C 30.609375 23.199219 26.296875 27.625 26.296875 33.121094 C 26.296875 33.246094 26.296875 33.367188 26.300781 33.492188 C 26.492188 28.167969 30.730469 23.941406 35.96875 23.941406 C 41.207031 23.941406 45.449219 28.167969 45.636719 33.492188 C 45.644531 33.367188 45.644531 33.246094 45.644531 33.121094 C 45.644531 27.625 41.328125 23.199219 35.96875 23.199219 Z M 35.96875 23.199219 "/>
<path style=" stroke:none;fill-rule:nonzero;fill:rgb(12.941176%,12.941176%,12.941176%);fill-opacity:1;" d="M 22.800781 13.117188 C 15.027344 13.117188 8.769531 19.730469 8.769531 27.929688 L 8.769531 28.355469 C 8.769531 28.578125 8.777344 28.800781 8.785156 29.023438 C 5.433594 29.3125 2.816406 32.195312 2.816406 35.726562 L 2.816406 36.433594 C 2.816406 40.160156 5.722656 43.167969 9.335938 43.167969 L 14.824219 43.167969 C 14.84375 43.175781 14.863281 43.179688 14.882812 43.179688 L 35.722656 43.179688 C 41.292969 43.179688 45.785156 38.691406 45.785156 33.117188 C 45.785156 27.660156 41.476562 23.242188 36.0625 23.0625 C 34.164062 17.265625 28.960938 13.117188 22.800781 13.117188 Z M 22.800781 13.398438 C 28.867188 13.398438 33.988281 17.503906 35.828125 23.242188 C 35.84375 23.296875 35.898438 23.335938 35.957031 23.339844 C 41.269531 23.460938 45.503906 27.773438 45.503906 33.117188 C 45.503906 38.539062 41.144531 42.898438 35.722656 42.898438 L 14.945312 42.898438 C 14.925781 42.890625 14.90625 42.886719 14.882812 42.886719 L 9.335938 42.886719 C 5.878906 42.886719 3.097656 40.011719 3.097656 36.433594 L 3.097656 35.726562 C 3.097656 32.285156 5.671875 29.5 8.941406 29.289062 C 9.015625 29.285156 9.074219 29.21875 9.070312 29.140625 C 9.058594 28.878906 9.050781 28.617188 9.050781 28.355469 L 9.050781 27.929688 C 9.050781 19.875 15.1875 13.398438 22.800781 13.398438 Z M 22.800781 13.398438 "/>
<path style=" stroke:none;fill-rule:nonzero;fill:url(#linear2);" d="M 12.210938 4.105469 C 10.957031 4.082031 9.890625 5.007812 9.742188 6.253906 C 8.328125 16.730469 11.066406 27.363281 12.945312 35.585938 C 13.167969 36.558594 13.957031 37.296875 14.945312 37.449219 C 15.929688 37.605469 16.910156 37.144531 17.417969 36.285156 L 23.5625 25.933594 L 26.738281 37.546875 C 27 38.507812 27.824219 39.210938 28.8125 39.324219 C 29.804688 39.4375 30.761719 38.933594 31.234375 38.054688 C 35.242188 30.597656 40.753906 20.644531 42.105469 10.625 C 42.234375 9.753906 41.886719 8.886719 41.195312 8.34375 C 40.5 7.804688 39.570312 7.679688 38.761719 8.015625 C 37.949219 8.351562 37.382812 9.101562 37.277344 9.972656 C 36.371094 16.65625 33.105469 23.90625 29.8125 30.308594 L 26.75 19.105469 C 26.488281 18.160156 25.691406 17.460938 24.722656 17.332031 C 23.753906 17.199219 22.800781 17.660156 22.300781 18.503906 L 16.355469 28.519531 C 14.867188 21.59375 13.617188 13.988281 14.574219 6.90625 C 14.675781 6.210938 14.476562 5.507812 14.023438 4.972656 C 13.570312 4.433594 12.910156 4.121094 12.210938 4.105469 Z M 12.210938 4.105469 "/>
<path style=" stroke:none;fill-rule:nonzero;fill:rgb(100%,100%,100%);fill-opacity:0.784314;" d="M 12.210938 4.105469 C 10.957031 4.082031 9.890625 5.011719 9.742188 6.253906 C 9.453125 8.398438 9.335938 10.550781 9.351562 12.683594 C 9.367188 10.796875 9.484375 8.902344 9.742188 7.011719 C 9.890625 5.769531 10.957031 4.839844 12.210938 4.863281 C 13.390625 4.886719 14.386719 5.757812 14.570312 6.925781 C 14.570312 6.917969 14.574219 6.910156 14.574219 6.90625 C 14.675781 6.210938 14.476562 5.507812 14.023438 4.972656 C 13.570312 4.433594 12.910156 4.121094 12.210938 4.105469 Z M 39.738281 7.832031 C 38.488281 7.808594 37.425781 8.734375 37.277344 9.972656 C 36.371094 16.65625 33.105469 23.90625 29.8125 30.308594 L 26.75 19.105469 C 26.488281 18.160156 25.691406 17.460938 24.722656 17.332031 C 23.753906 17.199219 22.800781 17.660156 22.300781 18.503906 L 16.355469 28.519531 C 15.269531 23.472656 14.3125 18.066406 14.242188 12.765625 C 14.238281 13.09375 14.238281 13.421875 14.242188 13.753906 C 14.242188 13.675781 14.242188 13.597656 14.242188 13.523438 C 14.3125 18.824219 15.269531 24.230469 16.355469 29.277344 L 22.300781 19.261719 C 22.800781 18.417969 23.753906 17.957031 24.722656 18.089844 C 25.691406 18.21875 26.488281 18.917969 26.75 19.863281 L 29.8125 31.066406 C 33.105469 24.664062 36.371094 17.414062 37.277344 10.730469 C 37.425781 9.492188 38.488281 8.566406 39.738281 8.589844 C 40.921875 8.609375 41.921875 9.480469 42.105469 10.648438 C 42.105469 10.640625 42.105469 10.632812 42.105469 10.625 C 42.210938 9.929688 42.007812 9.226562 41.554688 8.691406 C 41.101562 8.15625 40.4375 7.84375 39.738281 7.832031 Z M 39.738281 7.832031 "/>
<path style=" stroke:none;fill-rule:nonzero;fill:rgb(0%,0%,0%);fill-opacity:0.235294;" d="M 10.128906 21.894531 C 10.078125 22.007812 10.03125 22.125 9.988281 22.238281 C 10.722656 27.550781 11.953125 32.566406 12.945312 36.90625 C 13.167969 37.878906 13.957031 38.617188 14.945312 38.773438 C 15.929688 38.925781 16.910156 38.464844 17.417969 37.609375 L 23.5625 27.253906 L 26.738281 38.867188 C 27 39.828125 27.824219 40.535156 28.8125 40.644531 C 29.804688 40.757812 30.761719 40.257812 31.234375 39.378906 C 33.652344 34.882812 36.613281 29.480469 38.878906 23.703125 C 38.722656 23.652344 38.566406 23.605469 38.40625 23.558594 C 36.210938 28.890625 33.488281 33.867188 31.234375 38.054688 C 30.761719 38.933594 29.804688 39.4375 28.8125 39.324219 C 27.824219 39.210938 27 38.507812 26.738281 37.546875 L 23.5625 25.933594 L 17.417969 36.285156 C 16.910156 37.144531 15.929688 37.605469 14.945312 37.449219 C 13.957031 37.296875 13.167969 36.558594 12.945312 35.585938 C 12.015625 31.507812 10.871094 26.84375 10.128906 21.894531 Z M 10.128906 21.894531 "/>
<path style="fill:none;stroke-width:3;stroke-linecap:round;stroke-linejoin:round;stroke:rgb(12.941176%,12.941176%,12.941176%);stroke-opacity:1;stroke-miterlimit:4;" d="M 130.237563 -171.212515 C 116.86384 -171.462491 105.489926 -161.588434 103.906744 -148.298036 C 88.824851 -36.558707 118.030395 76.84713 138.070148 164.547088 C 140.444922 174.921098 148.860785 182.795346 159.401445 184.420191 C 169.900442 186.086698 180.357777 181.170501 185.773926 172.00471 L 251.309334 61.598586 L 285.1811 185.461758 C 287.9725 195.710779 296.763327 203.210063 307.303987 204.418281 C 317.88631 205.626499 328.093669 200.252012 333.134854 190.877907 C 375.880772 111.343836 434.666825 5.187306 449.082115 -101.677488 C 450.456984 -110.968268 446.749004 -120.217385 439.374708 -126.008498 C 431.95875 -131.757949 422.04303 -133.091155 413.418854 -129.508164 C 404.753015 -125.925173 398.711925 -117.925937 397.587032 -108.635157 C 387.921289 -37.350298 353.091281 39.975651 317.969635 108.260797 L 285.306088 -11.227793 C 282.514688 -21.310163 274.015499 -28.767784 263.683153 -30.142653 C 253.350806 -31.559184 243.18511 -26.642987 237.852286 -17.643847 L 174.441675 89.179286 C 158.568191 15.31134 145.236131 -65.805914 155.443489 -141.340367 C 156.526719 -148.756326 154.401922 -156.25561 149.56905 -161.963398 C 144.736178 -167.712849 137.695184 -171.045864 130.237563 -171.212515 Z M 130.237563 -171.212515 " transform="matrix(0.093759,0,0,0.093759,0,20.158175)"/>
</g>
</svg>
